styles/1/Numix/32/places/custom-user-home.svg

<?xml version="1.0" encoding="UTF-8" standalone="no"?>
<!-- Created with Inkscape (http://www.inkscape.org/) -->

<svg
   xmlns:dc="http://purl.org/dc/elements/1.1/"
   xmlns:cc="http://creativecommons.org/ns#"
   xmlns:rdf="http://www.w3.org/1999/02/22-rdf-syntax-ns#"
   xmlns:svg="http://www.w3.org/2000/svg"
   xmlns="http://www.w3.org/2000/svg"
   xmlns:sodipodi="http://sodipodi.sourceforge.net/DTD/sodipodi-0.dtd"
   xmlns:inkscape="http://www.inkscape.org/namespaces/inkscape"
   width="32"
   height="32"
   id="svg2"
   version="1.1"
   inkscape:version="0.91 r"
   sodipodi:docname="custom-user-home.svg"
   inkscape:export-filename="/media/Data/Main/Visuals/Icons/Numix/Desktop/repos/numix-wiki/Gjorgi/Numix-folders/48/New/folder-144.png"
   inkscape:export-xdpi="270"
   inkscape:export-ydpi="270">
  <defs
     id="defs4" />
  <sodipodi:namedview
     id="base"
     pagecolor="#ffffff"
     bordercolor="#666666"
     borderopacity="1.0"
     inkscape:pageopacity="0.0"
     inkscape:pageshadow="2"
     inkscape:zoom="21.767834"
     inkscape:cx="12.167095"
     inkscape:cy="13.523369"
     inkscape:document-units="px"
     inkscape:current-layer="layer1"
     showgrid="true"
     inkscape:window-width="1280"
     inkscape:window-height="998"
     inkscape:window-x="0"
     inkscape:window-y="0"
     inkscape:window-maximized="1"
     showguides="true"
     inkscape:guide-bbox="true">
    <inkscape:grid
       type="xygrid"
       id="grid2985"
       empspacing="5"
       visible="true"
       enabled="true"
       snapvisiblegridlinesonly="true" />
  </sodipodi:namedview>
  <metadata
     id="metadata7">
    <rdf:RDF>
      <cc:Work
         rdf:about="">
        <dc:format>image/svg+xml</dc:format>
        <dc:type
           rdf:resource="http://purl.org/dc/dcmitype/StillImage" />
        <dc:title />
      </cc:Work>
    </rdf:RDF>
  </metadata>
  <g
     inkscape:label="Layer 1"
     inkscape:groupmode="layer"
     id="layer1"
     transform="translate(0,-1020.3622)">
    <path
       style="font-size:medium;font-style:normal;font-variant:normal;font-weight:normal;font-stretch:normal;text-indent:0;text-align:start;text-decoration:none;line-height:normal;letter-spacing:normal;word-spacing:normal;text-transform:none;direction:ltr;block-progression:tb;writing-mode:lr-tb;text-anchor:start;baseline-shift:baseline;color:#000000;fill:replacecolour1;fill-opacity:1;fill-rule:nonzero;stroke:none;stroke-width:2.28612947;marker:none;visibility:visible;display:inline;overflow:visible;enable-background:accumulate;font-family:Sans;-inkscape-font-specification:Sans"
       d="M 2.03125,4 C 1.4665378,4.056 0.99079304,4.58885 1,5.15625 l 0,21.6875 C 0.99302,27.45105 1.5489584,28.007 2.15625,28 l 27.6875,0 C 30.451042,28.01 31.006984,27.45105 31,26.84375 L 31,7.15625 C 31.007,6.54895 30.451042,5.993 29.84375,6 L 19,6 19,5.15625 C 19.0069,4.55935 18.471863,4.0095 17.875,4 L 2.15625,4 z M 16,11.25 c 0.25,0 0.683772,0.117544 1,0.75 l 2,2 0,-1 c 0,-0.554 0,-1 1,-1 1,0 1,0.446 1,1 l 0,3 c 2.288136,2 3,2 0,2 l 0,5 c 0,1.108 -0.892,2 -2,2 l -1.5,0 0,-5 -3,0 0,5 -1.5,0 c -1.108,0 -2,-0.892 -2,-2 l 0,-5 c -3,0 -2.2033898,0 0,-2 l 4,-4 c 0.5,-0.5 0.75,-0.75 1,-0.75 z"
       transform="translate(0,1020.3622)"
       id="path3912"
       inkscape:connector-curvature="0"
       sodipodi:nodetypes="cccccccccccccsscsssccssccccssccss" />
  </g>
</svg>

<!-- Created with Inkscape (http://www.inkscape.org/) -->
<svg xmlns="http://www.w3.org/2000/svg" viewBox="0 0 32 32">
 <g transform="translate(0,-1020.3622)">
  <path d="m 2.031 4 c -0.565 0.056 -1.04 0.589 -1.031 1.156 l 0 21.688 c -0.007 0.607 0.549 1.163 1.156 1.156 l 27.688 0 c 0.607 0.01 1.163 -0.549 1.156 -1.156 l 0 -19.688 c 0.007 -0.607 -0.549 -1.163 -1.156 -1.156 l -10.844 0 0 -0.844 c 0.007 -0.597 -0.528 -1.147 -1.125 -1.156 l -15.719 0 z m 13.969 7.25 c 0.25 0 0.684 0.118 1 0.75 l 2 2 0 -1 c 0 -0.554 0 -1 1 -1 1 0 1 0.446 1 1 l 0 3 c 2.288 2 3 2 0 2 l 0 5 c 0 1.108 -0.892 2 -2 2 l -1.5 0 0 -5 -3 0 0 5 -1.5 0 c -1.108 0 -2 -0.892 -2 -2 l 0 -5 c -3 0 -2.203 0 0 -2 l 4 -4 c 0.5 -0.5 0.75 -0.75 1 -0.75 z" transform="translate(0,1020.3622)" style="visibility:visible;fill:replacecolour1;fill-opacity:1;stroke:none;display:inline;color:#000;fill-rule:nonzero"/>
 </g>
</svg>
